img/assets/sectionServices/girl-photography.svg

<?xml version="1.0" encoding="UTF-8"?>
<svg width="63px" height="80px" viewBox="0 0 63 80" version="1.1" xmlns="http://www.w3.org/2000/svg" xmlns:xlink="http://www.w3.org/1999/xlink">
    <!-- Generator: Sketch 61 (89581) - https://sketch.com -->
    <title>girl-photography</title>
    <desc>Created with Sketch.</desc>
    <g id="Inner-Pages" stroke="none" stroke-width="1" fill="none" fill-rule="evenodd">
        <g id="036--Services-2" transform="translate(-929.000000, -722.000000)" fill="#888888" fill-rule="nonzero">
            <g id="section-SERVICES" transform="translate(400.000000, 618.000000)">
                <g id="service-2" transform="translate(390.000000, 0.000000)">
                    <g id="content" transform="translate(80.000000, 104.000000)">
                        <g id="girl-photography" transform="translate(59.000000, 0.000000)">
                            <path d="M58.5605184,0 L4.16086393,0 C1.92190065,0 0.100388769,1.82151188 0.100388769,4.06047516 L0.100388769,75.9395248 C0.100388769,78.1784881 1.92190065,80 4.16086393,80 L58.5605184,80 C60.7994816,80 62.6209935,78.1784881 62.6209935,75.9395248 L62.6209935,4.06047516 C62.6209935,1.82151188 60.7994816,0 58.5605184,0 Z M13.1922246,47.16527 C14.5069546,44.5010799 15.1735637,40.3092873 15.1735637,34.7065227 L15.1735637,30.1326998 C15.1735637,21.142635 22.4350756,13.8285961 31.3606911,13.8285961 C40.2863067,13.8285961 47.5478186,21.142635 47.5478186,30.1326998 L47.5478186,34.7065227 C47.5478186,40.3098056 48.2146004,44.4993521 49.529676,47.1585313 C49.8177106,47.7409935 50.11473,48.2033693 50.4025918,48.5701944 C49.3504968,49.1039309 47.5675162,49.7351188 44.8919222,49.8693737 C40.237581,49.8329158 39.0676458,47.4175378 38.9605184,45.2459611 C42.6821598,42.7758099 45.1417711,38.5492873 45.1417711,33.757581 L45.1417711,28.8656587 C45.1417711,26.8910583 44.0796544,25.3456587 42.1510151,24.5142117 C35.9635421,21.847257 20.6539957,26.6519222 17.9858315,29.1720086 C17.7266523,29.4168467 17.5796112,29.757581 17.5796112,30.1142117 L17.5796112,33.757581 C17.5796112,38.5710583 20.0620302,42.8134773 23.8120086,45.2787905 C23.6138229,49.0396544 20.4798272,49.8598704 17.8182289,49.8686825 C15.5319222,49.747905 13.904622,49.2516631 12.9000432,48.8264363 C12.6921814,48.7384881 12.5028078,48.6501944 12.3315767,48.5644924 C12.6154644,48.1992225 12.9083369,47.7406479 13.1922246,47.16527 Z M31.3606911,44.9466955 C25.1908423,44.9466955 20.1714039,39.927257 20.1714039,33.7574082 L20.1714039,30.7536933 C21.4588337,29.9314039 24.8805184,28.5183585 29.2822462,27.4491577 C34.5406479,26.1717495 38.968121,25.964406 41.1251836,26.8943413 C42.1240605,27.3249244 42.5501512,27.9144708 42.5501512,28.8656587 L42.5501512,33.757581 C42.5501512,39.927257 37.53054,44.9466955 31.3606911,44.9466955 Z M26.2500216,46.551879 C27.8315335,47.1858315 29.5552484,47.5384881 31.3606911,47.5384881 C33.1813391,47.5384881 34.9190497,47.1803024 36.5114471,46.5359827 C36.7120518,47.5922246 37.1488553,48.7592225 38.0338661,49.8016415 C39.0339525,50.9796976 40.4115767,51.7679482 42.1434125,52.1638013 C39.7333909,57.9352052 33.2103672,61.3755508 31.3596544,62.2550324 C29.5080778,61.3786609 23.0007775,57.955594 20.5836717,52.1783153 C24.5803888,51.297797 25.8588337,48.5378834 26.2500216,46.551879 Z M30.8649676,64.8748164 C31.1823758,65.0063067 31.5388337,65.0063067 31.8560691,64.8748164 C31.9650972,64.8297192 34.5582721,63.7456587 37.4738661,61.5994816 C41.044838,58.9710583 43.5471274,55.8705832 44.7664795,52.5793521 C49.1922246,53.0336069 52.5380562,56.7365875 52.5380562,61.3814255 L52.5380562,77.4082073 L47.6388769,77.4082073 L47.6388769,68.7160259 C47.6388769,68.0003456 47.0586609,67.4201296 46.3429806,67.4201296 C45.6273002,67.4201296 45.0470842,68.0003456 45.0470842,68.7160259 L45.0470842,77.4082073 L17.6742981,77.4082073 L17.6742981,68.7160259 C17.6742981,68.0003456 17.0940821,67.4201296 16.3784017,67.4201296 C15.6627214,67.4201296 15.0825054,68.0003456 15.0825054,68.7160259 L15.0825054,77.4082073 L10.1833261,77.4082073 L10.1833261,61.3817711 C10.1833261,56.7371058 13.528121,53.0342981 17.9535205,52.5796976 C20.9354644,60.6835421 30.4459611,64.7015119 30.8649676,64.8748164 Z M60.0292009,75.9395248 C60.0292009,76.7493737 59.3703672,77.4082073 58.5605184,77.4082073 L55.1298488,77.4082073 L55.1298488,61.3817711 C55.1298488,57.1953348 53.0184017,53.6020734 49.7935205,51.609676 C52.2695464,50.787041 53.3917927,49.6729158 53.4641901,49.5991361 C53.7878186,49.2687689 53.9110151,48.7910151 53.7873002,48.3453996 C53.672743,47.9327862 53.3625918,47.6057019 52.9620734,47.4673002 C52.7713175,47.3589633 50.1396112,45.6530454 50.1396112,34.7066955 L50.1396112,30.1328726 C50.1396112,19.7136933 41.7154212,11.2369762 31.3606911,11.2369762 C21.0059611,11.2369762 12.5817711,19.7136933 12.5817711,30.1328726 L12.5817711,34.7066955 C12.5817711,45.6615119 9.94539957,47.3757235 9.75516199,47.4842333 C9.34980562,47.6257451 9.03827214,47.9606048 8.9287257,48.3803024 C8.81053996,48.8330022 8.94565875,49.3140389 9.28190065,49.6392225 C9.35671706,49.7114471 10.5057451,50.7929158 12.9394384,51.6022462 C9.70799136,53.5930886 7.59153348,57.190324 7.59153348,61.3819438 L7.59153348,77.4082073 L4.16086393,77.4082073 C3.35101512,77.4082073 2.69218143,76.7493737 2.69218143,75.9395248 L2.69218143,4.06047516 C2.69218143,3.25062635 3.35101512,2.59179266 4.16086393,2.59179266 L58.5605184,2.59179266 C59.3703672,2.59179266 60.0292009,3.25062635 60.0292009,4.06047516 L60.0292009,75.9395248 L60.0292009,75.9395248 Z" id="Shape"></path>
                        </g>
                    </g>
                </g>
            </g>
        </g>
    </g>
</svg>

<svg xmlns="http://www.w3.org/2000/svg" width="63" height="80" viewBox="0 0 63 80"><title>girl-photography</title><path fill="#888" fill-rule="nonzero" d="M58.56 0H4.16A4.065 4.065 0 0 0 .1 4.06v71.88A4.065 4.065 0 0 0 4.16 80h54.4a4.065 4.065 0 0 0 4.061-4.06V4.06A4.065 4.065 0 0 0 58.561 0zM13.193 47.165c1.315-2.664 1.982-6.856 1.982-12.458v-4.574c0-8.99 7.261-16.304 16.187-16.304 8.925 0 16.187 7.314 16.187 16.304v4.574c0 5.603.667 9.792 1.982 12.452.288.582.585 1.044.873 1.411-1.053.534-2.835 1.165-5.511 1.3-4.654-.037-5.824-2.452-5.931-4.624 3.721-2.47 6.18-6.697 6.18-11.488v-4.892c0-1.975-1.061-3.52-2.99-4.352-6.187-2.667-21.497 2.138-24.165 4.658-.26.245-.406.586-.406.942v3.644c0 4.813 2.482 9.055 6.232 11.52-.198 3.762-3.332 4.582-5.994 4.59-2.286-.12-3.913-.616-4.918-1.042a9.812 9.812 0 0 1-.568-.262c.283-.365.576-.823.86-1.399zm18.169-2.218c-6.17 0-11.19-5.02-11.19-11.19v-3.003c1.288-.823 4.71-2.236 9.111-3.305 5.259-1.277 9.686-1.485 11.843-.555 1 .43 1.425 1.02 1.425 1.972v4.892c0 6.17-5.02 11.189-11.19 11.189zm-5.111 1.605c1.582.634 3.305.986 5.11.986a13.7 13.7 0 0 0 5.151-1.002c.201 1.056.638 2.223 1.523 3.266 1 1.178 2.378 1.966 4.11 2.362-2.41 5.771-8.934 9.212-10.784 10.091-1.852-.876-8.36-4.3-10.776-10.077 3.996-.88 5.275-3.64 5.666-5.626zm4.615 18.323c.317.131.674.131.991 0 .11-.045 2.702-1.13 5.618-3.276 3.57-2.628 6.073-5.728 7.292-9.02 4.426.455 7.772 4.158 7.772 8.802v16.027h-4.9v-8.692a1.296 1.296 0 0 0-2.59 0v8.692H17.673v-8.692a1.296 1.296 0 0 0-2.591 0v8.692h-4.9V61.382c0-4.645 3.345-8.348 7.77-8.802 2.982 8.104 12.493 12.122 12.912 12.295zM60.029 75.94a1.47 1.47 0 0 1-1.468 1.468H55.13V61.382c0-4.187-2.112-7.78-5.336-9.772 2.476-.823 3.598-1.937 3.67-2.01a1.296 1.296 0 0 0-.502-2.133c-.19-.108-2.822-1.814-2.822-12.76v-4.574c0-10.42-8.425-18.896-18.78-18.896-10.354 0-18.778 8.477-18.778 18.896v4.574c0 10.955-2.637 12.669-2.827 12.777a1.296 1.296 0 0 0-.473 2.155c.075.072 1.224 1.154 3.657 1.963-3.231 1.991-5.347 5.588-5.347 9.78v16.026H4.16a1.47 1.47 0 0 1-1.469-1.468V4.06c0-.81.659-1.468 1.469-1.468h54.4c.81 0 1.468.659 1.468 1.468v71.88z"/></svg>
